icons/desktop/16/svg/smart-window-16.svg

<svg width="16" height="16" viewBox="0 0 16 16" fill="none" xmlns="http://www.w3.org/2000/svg">
<g clip-path="url(#clip0_13876_771)">
<path d="M15.6084 7.00498C16.2835 7.60485 16.0928 8.80451 15.0166 9.40439C13.7252 10.1992 11.9743 10.2145 11.1133 11.5841C10.5018 12.4988 10.2281 13.8437 9.9297 14.6036C9.72913 15.1835 9.33689 15.7181 8.82814 15.9181C7.81577 16.2078 6.89141 15.7184 6.50001 14.7989C7.2336 14.7989 7.80109 14.4389 8.1631 13.9991C8.19239 13.9642 8.22169 13.9237 8.25099 13.8888C9.01409 12.869 9.04384 11.6643 9.6797 10.5645C10.6336 9.0799 12.9964 8.56496 14.4346 8.00009C15.1086 7.7377 15.5811 7.47073 15.6094 7.08017L15.6084 7.00498Z" fill="black"/>
<path d="M0.393567 7.00009C0.35933 7.43497 0.85327 7.72017 1.5674 8.00009C2.29629 8.28503 3.26494 8.56025 4.16505 8.95517C4.27757 8.99516 4.38556 9.03995 4.49318 9.08994C5.00674 9.33987 5.50616 9.64969 5.91212 10.0645C6.05876 10.2194 6.18052 10.3947 6.30275 10.5645L6.31251 10.5597C6.57447 10.9365 7.18312 12.7872 7.19337 12.8185L7.08107 12.9386C6.7582 13.2835 6.30753 13.4835 5.8379 13.4835H5.71583C5.33917 12.2989 4.8789 11.2488 3.7881 10.589C2.91744 10.1143 1.85105 9.92929 0.985364 9.39951C-0.0906907 8.79961 -0.281449 7.59995 0.393567 7.00009Z" fill="black"/>
<path d="M6.50001 1.20322C6.89131 0.283542 7.81569 -0.206567 8.82814 0.0831005C9.33689 0.28306 9.72913 0.818649 9.9297 1.39853C10.3014 2.46319 10.5261 3.71785 11.25 4.60751L11.2451 4.6124C12.1893 5.77716 14.7481 6.45712 14.7481 6.45712C14.7481 6.45712 14.4493 6.77698 13.8867 7.00693C13.8818 7.01191 13.877 7.01181 13.8721 7.01181C13.114 7.32167 12.2483 7.26212 11.5098 6.90244C10.8592 6.5875 10.2762 6.19186 9.86036 5.67197C9.29312 4.97713 9.12652 4.00241 8.81349 3.18271C8.67165 2.81288 8.50528 2.45323 8.25099 2.11337C8.22164 2.07838 8.19245 2.03802 8.1631 2.00302C7.8011 1.56313 7.23378 1.20322 6.50001 1.20322Z" fill="black"/>
<path d="M6.084 2.50009C6.55351 2.50017 7.00338 2.70017 7.32618 3.04501L7.43849 3.16513C7.15482 3.9099 6.99879 4.6949 6.57326 5.43466C6.16234 6.07453 5.48674 6.5347 4.74318 6.89462C3.99975 7.25439 3.13896 7.3138 2.38087 7.004C2.37603 7.004 2.37107 7.00397 2.36622 6.99912C1.80539 6.76987 1.50673 6.45127 1.5049 6.44931H1.50001C1.50001 6.44931 4.33723 5.69464 5.13966 4.42001C5.51142 3.86517 5.7555 3.14493 5.96095 2.50009H6.084Z" fill="black"/>
</g>
<defs>
<clipPath id="clip0_13876_771">
<rect width="16" height="16" fill="white"/>
</clipPath>
</defs>
</svg>

<!-- This Source Code Form is subject to the terms of the Mozilla Public
   - License, v. 2.0. If a copy of the MPL was not distributed with this
   - file, You can obtain one at http://mozilla.org/MPL/2.0/. -->
<svg xmlns="http://www.w3.org/2000/svg" width="16" height="16" fill="context-fill" fill-opacity="context-fill-opacity" viewBox="0 0 16 16">
    <g clip-path="url(#clip0_13876_771)">
        <path d="M15.608 7.005c.675.6.485 1.8-.591 2.4-1.292.794-3.043.81-3.904 2.18-.611.914-.885 2.259-1.183 3.019-.2.58-.593 1.114-1.102 1.314-1.012.29-1.937-.2-2.328-1.12.734 0 1.301-.36 1.663-.799.03-.035.059-.075.088-.11.763-1.02.793-2.225 1.429-3.324.954-1.485 3.316-2 4.755-2.565.674-.262 1.146-.53 1.174-.92zM.394 7c-.035.435.46.72 1.173 1 .73.285 1.698.56 2.598.955q.168.06.328.135c.514.25 1.013.56 1.42.975.146.154.268.33.39.5l.01-.005c.261.377.87 2.227.88 2.258l-.112.12a1.7 1.7 0 0 1-1.243.545h-.122c-.377-1.184-.837-2.234-1.928-2.894-.87-.475-1.937-.66-2.803-1.19C-.09 8.8-.28 7.6.394 7M6.5 1.203c.391-.92 1.316-1.41 2.328-1.12.509.2.901.736 1.102 1.316.371 1.064.596 2.319 1.32 3.209l-.005.004c.944 1.165 3.503 1.845 3.503 1.845s-.299.32-.861.55q-.007.006-.015.005c-.758.31-1.624.25-2.362-.11-.65-.314-1.234-.71-1.65-1.23-.567-.695-.733-1.67-1.047-2.49a4.3 4.3 0 0 0-.562-1.069c-.03-.035-.059-.075-.088-.11-.362-.44-.93-.8-1.663-.8M6.084 2.5c.47 0 .92.2 1.242.545l.112.12c-.283.745-.44 1.53-.865 2.27-.41.64-1.086 1.1-1.83 1.46-.743.36-1.604.419-2.362.109q-.007.001-.015-.005c-.56-.23-.86-.548-.861-.55H1.5s2.837-.754 3.64-2.029c.371-.555.615-1.275.821-1.92z" />
    </g>
</svg>
